manjaro/static/img/manjaro-email.svg

<?xml version="1.0" encoding="UTF-8" standalone="no"?>
<!-- Created with Inkscape (http://www.inkscape.org/) -->

<svg
   width="32"
   height="32"
   viewBox="0 0 32 32"
   version="1.1"
   id="svg8"
   inkscape:version="1.1.2 (0a00cf5339, 2022-02-04, custom)"
   sodipodi:docname="Manjaro_email.svg"
   xmlns:inkscape="http://www.inkscape.org/namespaces/inkscape"
   xmlns:sodipodi="http://sodipodi.sourceforge.net/DTD/sodipodi-0.dtd"
   xmlns="http://www.w3.org/2000/svg"
   xmlns:svg="http://www.w3.org/2000/svg"
   xmlns:rdf="http://www.w3.org/1999/02/22-rdf-syntax-ns#"
   xmlns:cc="http://creativecommons.org/ns#"
   xmlns:dc="http://purl.org/dc/elements/1.1/">
  <defs
     id="defs2" />
  <sodipodi:namedview
     id="base"
     pagecolor="#525252"
     bordercolor="#404040"
     borderopacity="1"
     inkscape:pageopacity="0"
     inkscape:pageshadow="2"
     inkscape:zoom="16"
     inkscape:cx="16.40625"
     inkscape:cy="17.4375"
     inkscape:document-units="px"
     inkscape:current-layer="layer1"
     showgrid="false"
     inkscape:window-width="1914"
     inkscape:window-height="1047"
     inkscape:window-x="1923"
     inkscape:window-y="3"
     inkscape:window-maximized="0"
     inkscape:pagecheckerboard="0"
     units="px"
     showguides="true"
     inkscape:guide-bbox="true" />
  <metadata
     id="metadata5">
    <rdf:RDF>
      <cc:Work
         rdf:about="">
        <dc:format>image/svg+xml</dc:format>
        <dc:type
           rdf:resource="http://purl.org/dc/dcmitype/StillImage" />
      </cc:Work>
    </rdf:RDF>
  </metadata>
  <g
     inkscape:label="Layer 1"
     inkscape:groupmode="layer"
     id="layer1">
    <rect
       style="opacity:0.2;fill:#000000;fill-opacity:1;fill-rule:evenodd;stroke:none;stroke-width:0.983882;stroke-linecap:round;stroke-linejoin:round;paint-order:stroke fill markers"
       id="rect56292"
       width="27.415642"
       height="16.442211"
       x="-8.7289705"
       y="15.358041"
       ry="2.0374739"
       transform="rotate(-29.667615)"
       rx="2.0374739" />
    <path
       style="fill:#027724;fill-opacity:1;stroke-width:1.67852"
       d="M 0.81980721,17.70314 24.139683,4.3823963 29.967487,14.584837 6.6476321,27.905585 Z"
       id="path41409"
       sodipodi:nodetypes="ccccc" />
    <path
       style="fill:#1a8e3c;fill-opacity:1;stroke-width:1.67852"
       d="M 7.3482776,2.3759526 C 6.6592841,2.7976161 6.5222101,3.566062 6.3508385,3.986504 L 0.81980721,17.70314 24.139683,4.3823963 9.5149097,2.1791299 c -0.449202,-0.065968 -1.180761,-0.3382319 -1.8939548,0.041072 -0.044579,0.02359 -0.088771,0.0547 -0.1329629,0.08369 -0.047512,0.023416 -0.096585,0.045752 -0.139617,0.072075 z"
       id="path41411" />
    <rect
       style="fill:#ffffff;stroke-width:2.04448"
       width="16.355831"
       height="16.355831"
       x="3.2402"
       y="5.4719892"
       rx="1.7684743"
       ry="1.7684743"
       id="rect41413" />
    <path
       style="fill:#3fb361;fill-opacity:1;fill-rule:nonzero;stroke:none;stroke-width:0.224229"
       d="m 6.0366254,7.3714988 c -0.4966325,0 -0.896912,0.4002849 -0.896912,0.8969162 v 10.762977 c 0,0.496632 0.4002795,0.896917 0.896912,0.896917 H 8.7273717 V 10.959157 H 13.211947 V 7.3714988 Z m 8.0722336,0 V 19.928309 h 2.690748 c 0.496631,0 0.896916,-0.400285 0.896916,-0.896917 V 8.268415 c 0,-0.4966313 -0.400285,-0.8969162 -0.896916,-0.8969162 z M 9.6242887,11.856075 v 8.072234 h 3.5876583 v -8.072234 z m 0,0"
       id="path41417" />
    <path
       id="path41419"
       style="fill:#0c802e;fill-opacity:1;stroke-width:1.67852"
       d="m 0.82013791,17.70396 0.97726199,1.710843 3.2667723,5.718951 2.2716159,3.976788 c 0.1824569,0.319419 0.4400871,0.56529 0.7366966,0.734491 L 13.709541,19.878214 Z M 8.0724847,29.845033 c 0.072822,0.04153 0.1477407,0.07765 0.224845,0.1094 -0.077196,-0.03179 -0.1518801,-0.06786 -0.224845,-0.1094 z m 0.224845,0.1094 c 0.03954,0.01629 0.0783,0.03558 0.118734,0.04922 0.01267,0.0044 0.02688,0.0013 0.03986,0.0036 -0.05246,-0.01667 -0.107627,-0.0318 -0.158572,-0.0529 z" />
    <path
       id="path41421"
       style="fill:#2b9f4d;fill-opacity:1;stroke-width:1.67852"
       d="m 24.140014,4.3832151 -4.674516,12.2070909 11.448611,0.207167 c 0.004,-0.341442 -0.07601,-0.688251 -0.258458,-1.007674 L 28.38404,11.81301 25.117282,6.09406 Z M 30.914109,16.79747 c -7.74e-4,0.08405 -0.0067,0.166587 -0.02014,0.249208 0.01387,-0.08233 0.0192,-0.165351 0.02014,-0.249208 z m -0.02014,0.249208 c -0.0067,0.05446 -0.024,0.109573 -0.03454,0.163596 0.004,-0.0124 0.0148,-0.02338 0.01693,-0.03622 0.0093,-0.04166 0.0144,-0.08464 0.01734,-0.127335 z" />
    <path
       style="fill:#1a8e3c;fill-opacity:1;stroke-width:1.67852"
       d="m 15.678128,16.948294 c -0.669735,0.402689 -0.877121,1.015392 -1.077875,1.361061 L 8.0737009,29.844992 c 0.5837908,0.332615 1.3194548,0.358409 1.9453551,8.64e-4 L 29.926268,18.474495 c 0.62589,-0.357529 0.977346,-1.004319 0.987401,-1.676135 L 17.661872,16.560481 c -0.399729,-0.0027 -1.032837,-0.135292 -1.719907,0.237084 -0.04291,0.02316 -0.08636,0.05205 -0.129483,0.07958 -0.04548,0.02346 -0.0925,0.04607 -0.134344,0.07111 z"
       id="path41425" />
    <path
       id="path41415"
       style="fill:#000000;stroke-width:2.04448;opacity:0.2"
       d="m 5.008392,5.4725161 c -0.9797343,0 -1.7684453,0.788711 -1.7684453,1.7684454 v 2.000244 H 19.596112 v -2.000244 c 0,-0.9797344 -0.788711,-1.7684454 -1.768445,-1.7684454 z" />
  </g>
</svg>

<svg version="1.1" viewBox="0 0 32 32" xmlns="http://www.w3.org/2000/svg">
 <g>
  <rect transform="rotate(-29.668)" x="-8.729" y="15.358" width="27.416" height="16.442" rx="2.0375" ry="2.0375" fill-rule="evenodd" opacity=".2" style="paint-order:stroke fill markers"/>
  <path d="m0.81981 17.703 23.32-13.321 5.8278 10.202-23.32 13.321z" fill="#027724" stroke-width="1.6785"/>
  <path d="m7.3483 2.376c-0.68899 0.42166-0.82607 1.1901-0.99744 1.6106l-5.531 13.717 23.32-13.321-14.625-2.2033c-0.4492-0.065968-1.1808-0.33823-1.894 0.041072-0.044579 0.02359-0.088771 0.0547-0.13296 0.08369-0.047512 0.023416-0.096585 0.045752-0.13962 0.072075z" fill="#1a8e3c" stroke-width="1.6785"/>
 </g>
 <rect x="3.2402" y="5.472" width="16.356" height="16.356" rx="1.7685" ry="1.7685" fill="#fff" stroke-width="2.0445"/>
 <g>
  <path d="m6.0366 7.3715c-0.49663 0-0.89691 0.40028-0.89691 0.89692v10.763c0 0.49663 0.40028 0.89692 0.89691 0.89692h2.6907v-8.9692h4.4846v-3.5877zm8.0722 0v12.557h2.6907c0.49663 0 0.89692-0.40028 0.89692-0.89692v-10.763c0-0.49663-0.40028-0.89692-0.89692-0.89692zm-4.4846 4.4846v8.0722h3.5877v-8.0722z" fill="#3fb361"/>
  <g stroke-width="1.6785">
   <path d="m0.82014 17.704 6.5157 11.407c0.18246 0.31942 0.44009 0.56529 0.7367 0.73449l5.6371-9.9668zm7.2523 12.141c0.072822 0.04153 0.14774 0.07765 0.22484 0.1094-0.077196-0.03179-0.15188-0.06786-0.22484-0.1094zm0.22484 0.1094c0.03954 0.01629 0.0783 0.03558 0.11873 0.04922 0.01267 0.0044 0.02688 0.0013 0.03986 0.0036-0.05246-0.01667-0.10763-0.0318-0.15857-0.0529z" fill="#0c802e"/>
   <path d="m24.14 4.3832-4.6745 12.207 11.449 0.20717c4e-3 -0.34144-0.07601-0.68825-0.25846-1.0077l-5.5384-9.6957zm6.7741 12.414c-7.74e-4 0.08405-0.0067 0.16659-0.02014 0.24921 0.01387-0.08233 0.0192-0.16535 0.02014-0.24921zm-0.02014 0.24921c-0.0067 0.05446-0.024 0.10957-0.03454 0.1636 4e-3 -0.0124 0.0148-0.02338 0.01693-0.03622 0.0093-0.04166 0.0144-0.08464 0.01734-0.12734z" fill="#2b9f4d"/>
   <path d="m15.678 16.948c-0.66974 0.40269-0.87712 1.0154-1.0779 1.3611l-6.5266 11.536c0.58379 0.33262 1.3195 0.35841 1.9454 8.64e-4l19.907-11.371c0.62589-0.35753 0.97735-1.0043 0.9874-1.6761l-13.252-0.23788c-0.39973-0.0027-1.0328-0.13529-1.7199 0.23708-0.04291 0.02316-0.08636 0.05205-0.12948 0.07958-0.04548 0.02346-0.0925 0.04607-0.13434 0.07111z" fill="#1a8e3c"/>
  </g>
 </g>
 <path d="m5.0084 5.4725c-0.97973 0-1.7684 0.78871-1.7684 1.7684v2.0002h16.356v-2.0002c0-0.97973-0.78871-1.7684-1.7684-1.7684z" opacity=".2" stroke-width="2.0445"/>
</svg>
